X:1
T:Tollite portas
T:Tollite portas
T:Giovanni Battista Martini
C:Giovanni Battista Martini
%%score [ 1 2 3 4 ]
L:1/8
Q:1/4=120
M:2/2
K:C
V:1 treble nm="Soprano" snm="S"
V:2 treble nm="Alto" snm="A"
V:3 treble-8 nm="Tenor" snm="T"
V:4 bass nm="Bass" snm="B"
V:1
 z2 c3 c c2 | c4 B4 | G3 G (A2 B2) | c4 B2 G2- | G2 A4 B2- | B2 c4 d2 | B4 c4 | B2 d4 c2- | %8
w: Tol- li- te|por- tas|prin- ci- pes _|ve- stras et|_ e- le-|* va- mi-|ni, por-|tae ae- ter-|
 c2 (BA) B4 | z4 z2 G2 | c3 c A2 A2 | d4 BcBA | GA B3 A G2 | ^F2 G4 F2 | G4 z2 B2- | BB B2 c4 | %16
w: * na- * les,|et|in- tro- i- bit|rex glo- * * *|* * * ri- ae,|rex glo- ri-|ae. Tol-|* li- te por-|
 B4 z2 c2- | c2 cc c2 B2- | B2 A4 A2- | A2 B4 c2- | c2 d4 e2- | e2 dc B2 d2- | d2 c4 B2 | %23
w: tas prin-|* ci- pes ve- stras|_ et e-|* le- va-|* mi- ni,|* por- * * tae|_ ae- ter-|
 c2 G4 A2 | B2 c2 d2 e2 | c2 c3 B A2- | A2 A2 d3 c | (B2 c4 B2) | c8 |] %29
w: na- les, et|e- le- va- mi-|ni, por- * *|* tae ae- ter-|na- * *|les.|
V:2
 z2 G3 G G2 | G4 G4 | E3 E ^F2 G2- | G2 ^F2 G4 | E4 =F4 | G4 A3 A | G2 G4 ^F2 | G2 G2 G4 | %8
w: Tol- li- te|por- tas|prin- ci- pes ve-|* * stras|et e-|le- va- mi-|ni, por- tae|ae- ter- na-|
 G4 z2 D2 | G3 G E2 E2 | A4 ^FGFE | D3 D D2 G2- | G2 ^FE D4- | DCB,C D3 D | D4 z2 G2- | GG G2 G4 | %16
w: les, et|in- tro- i- bit|rex glo- * * *|* ri- ae, rex|_ glo- * *|* * * * * ri-|ae. Tol-|* li- te por-|
 G4 z2 G2- | G2 AA =F4 | E4 E4 | F4 G4 | A3 A G4 | E2 F2 G4 | G4 G4 | G4 z2 E2 | F2 G2 A2 G2 | %25
w: tas prin-|* ci- pes ve-|stras et|e- le-|va- mi- ni,|por- tae ae-|ter- na-|les, et|e- le- va- mi-|
 E4 (F2 C2) | F3 G A4 | G8 | G8 |] %29
w: ni, por- *|tae ae- ter-|na-|les.|
V:3
 z2 e3 e e2 | d4 d4 | c2 e2 d4 | c4 d4 | c4 A2 d2 | G2 c2 A4 | B2 d2 c2 A2 | B3 c/d/ e4- | %8
w: Tol- li- te|por- tas|prin- ci- pes|ve- stras|et e- le-|va- mi- ni,|por- tae ae- ter-|na- * * *|
 e2 dc d4 | z4 G2 c2- | cc A2 A2 d2- | d2 G3 ABc | d4- dc B2 | A2 B2 A3 A | G4 z2 d2- | dd d2 e4 | %16
w: * * * les,|et in-|* tro- i- bit rex|_ glo- * * *||ri- ae, glo- ri-|ae. Tol-|* li- te por-|
 d4 z2 c2- | c2 cc d4 | G4 A2 A2 | d2 B3 A G2 | c2 A2 B4 | c4 d4 | e4 d4 | c4 z2 c2 | B2 G2 d2 B2 | %25
w: tas prin-|* ci- pes ve-|stras et e-|le- va- mi- ni,|por- * *|tae ae-|ter- na-|les, et|e- le- va- mi-|
 A4 c3 B | A2 A2 f4- | f2 e2 d4 | c8 |] %29
w: ni, por- tae|ae- ter- na-||les.|
V:4
 z2 C,3 C, C,2 | G,4 G,4 | z2 C4 B,B, | A,4 G,4 | C,4 D,4 | E,4 F,3 F, | G,4 A,4 | G,2 G,2 C,4 | %8
w: Tol- li- te|por- tas|prin- ci- pes|ve- stras|et e-|le- va- mi-|ni, por-|tae ae- ter-|
 G,,4 G,,4 | z2 G,,2 C,3 C, | A,,2 A,,2 D,4 | (B,,C,B,,A,, G,,3) A,, | (B,,C,D,E, ^F,2) G,2 | %13
w: na- les,|et in- tro-|i- bit rex|glo- * * * * ri-|ae, _ _ _ _ rex|
 D,6 D,2 | G,4 z2 G,2- | G,G, G,2 C,4 | G,4 z2 E,2- | E,2 =F,F, D,4 | C,4 C,4 | D,4 E,4 | %20
w: glo- ri-|ae. Tol-|* li- te por-|tas prin-|* ci- pes ve-|stras et|e- le-|
 F,3 F, G,4 | A,4 G,2 G,2 | C,4 G,4 | C,4 z2 C,2 | D,2 E,2 F,2 G,2 | A,4 A,3 G, | %26
w: va- mi- ni,|por- tae ae-|ter- na-|les, et|e- le- va- mi-|ni, por- tae|
 F,2 F,2 (D,3 E,/F,/ | G,8) | C,8 |] %29
w: ae- ter- na- * *||les.|

